X:14588
T:Round The World For Sport,edited. BF14.02
M:4/4
Q:180
S:MS14,Browne "D",early 19thC,Troutbeck,W'morland
R:Reel
O:England
A:Lake District
N:Tentative reconstruction I have altered this tune so much to fit my
N:instincts that I'm afraid it may not be much like the original
N:tune,which is why I've left the original in place, for you to make up
N:your own mind.This being so then in case anybody is thinking of
N:donating it to Paul McCartney or somebody please remember that I hold
N:the copyright..CGP
Z:vmp.Chris Partington
K:D
(EF/G/) AB AGAB|GG/G/ BA G2E2|FGGB AGAB|(Bc/d/) Ad FDD2:|!
geef gbeg|fddg (fg/a/) fd|geef gbed|BdAB GEE2|!
geef gbeg|gddg (fg/a/) fd|gbfa efdA|BdAFE2E2:|]
